X: 26494
T: Michael Joseph Dunne
R: hornpipe
M: 4/4
K: Dmajor
|:(3ABc|d>A (3GFE D>F (3ABc|d>Ac>A B>FA>F|G>A (3B=c^c d>A (3FGA|(3GFE (3FED (3EFG (3ABc|
d>A (3GFE D>F (3ABc|d>Ac>A B>FA>F|G>AB>c d>AF>A|G>EF>E D2:|
|:(3dcd|e>A (3A^GA f>A (3AGA|g>Af>A e>A (3A^GA|g>Af>A (3efe (3def|(3efe (3dcB (3ABA (3FGA|
d>A (3GFE D>F (3ABc|d>Ac>A B>FA>F|G>D (3ABc d>A (3FGA|G>E (3CDE D2:|

